X:1
T:Hopser-Walzer
L:1/4
Q:140
M:3/4
K:C
G |edc | BAG | A G/G/ G/G/ | FzG | B G/G/ G/G/ | FzG | c G/G/ G/G/ |  EzG |
edc | BAG | A G/G/ G/G/ | FzG | B G/G/ G/G/ | FGB | c>cc | czz |